img/angolanos-mobile.svg

<svg fill="none" height="50" viewBox="0 0 47 50" width="47" xmlns="http://www.w3.org/2000/svg"><g fill="#b5bd00"><path d="m35.9792 50.0004c-.2521-.0029-.4957-.0913-.6911-.2505l-.4666-.0433h-.121l-.7257-.1555-.9504-.0864h-.095l-2.065-.3801-1.5897-.0605-1.2096.1728c-.063.0089-.127.0089-.1901 0h-.4925c-.0946.0003-.1884-.0173-.2764-.0518l-1.1837-.3975c-.2089-.0682-.3925-.1977-.527-.3715l-.3283-.4147-.5616-.3888h-14.72242l-.42336.0864c-.16098.0326-.3273.0277-.4861-.0142-.1588-.042-.30583-.1199-.42972-.2277l-.66528-.6048-.64799-.2333c-.22887-.0801-.42381-.2354-.55295-.4406l-.10368-.0864-1.28734.0259-.23328.0864-.5184.4752c-.07474.0648-.15932.1173-.25055.1555l-.3888.1814c-.15683.0689-.32759.1-.49862.091-.17104-.009-.33759-.0579-.48633-.1428l-.12959.095c-.0583.0455-.12218.0832-.19008.1124l-.76031.3715c-.16549.0778-.34782.1131-.5304.1025s-.359619-.0666-.51503-.163c-.155731-.0968-.284243-.2317-.373426-.3919-.089184-.1603-.1361-.3406-.136328-.5239v-.2765l-.17279823-1.1923c-.00362369-.0489-.00362369-.098 0-.1469v-.6912c.00033213-.2801.10864023-.5493.30239623-.7516v-.9245s0-.0864 0-.1383l.095039-.7084c.029296-.2308.132326-.446.293756-.6135l.311041-.3196.34559-1.201c.0193-.059.04239-.1167.06912-.1728l.19872-.4061.11232-.622c-.0081-.0834-.0081-.1673 0-.2506l.15552-.432.09503-.6221c.01384-.0829.03703-.1641.06912-.2419l.12096-.2937.10368-.5357c.01676-.0861.04283-.1701.07776-.2506l.39743-.8639v-.2333c-.00235-.2598.08976-.5116.2592-.7085v-.0778c.01145-.1132.04061-.224.0864-.3283l.39744-.864c.07812-.1774.20369-.3299.36287-.4406l.56159-.4147.06048-.4493c.02261-.1894.0954-.3694.21083-.5213.11544-.1519.26934-.2702.44581-.3427l1.08862-.4493.69119-.6134.20736-.3283.20736-.4666.14688-.7257v-.864c-.00595-.0925-.00014-.1854.01728-.2765l.09504-.3369-.05184-.6999c-.01449-.245.05233-.488.19007-.6912l-.06912-.2851-.51839-.3974c-.14676-.1114-.26029-.2608-.32831-.432l-.23328-.6134-.25056-.3024c-.07344-.0862-.12922-.1861-.16416-.2938l-.36287-.9158s0-.0864 0-.1296l-.50112-1.8144c-.01312-.0888-.01312-.179 0-.2678v-.3715c.00123-.2335.07689-.4605.216-.648l.3024-.4061c.04245-.0654.09493-.1237.15552-.1728l.07775-.0864v-.3629l-.14687-.4752-.3024-.3974c-.07152-.0971-.12695-.205-.16416-.3197l-.73439-2.1945v-.1037l-.23328-.864-.76031-.9245-.0864-.1296-.30239-.4838-.36288-.432-.06912-.1037-.20735-.3542c-.12091-.209-.17233-.4511-.14688-.6912v-.17279c.01656-.13309.05756-.26197.12096-.38015l.09503-.16416c.11326-.20998.29236-.37693.50976-.4752l.36287-.15552.13824-.05183 1.11455-.31104.77759-.3456h.10368l.92447-.30239c.10908-.03407.22267-.05154.33695-.05184h.48384l.38015-.05184h.15552 1.51198l1.3478-.09504c.1233-.01693.2483-.01693.3715 0l.3111.09504h1.0281l.7344-.10368c.0602-.00863.1213-.00863.1815 0h.8639l2.0304-.06912h.1555l1.0541.0864c.1448.00674.2863.04508.4147.11232l.1383.06912c.121.06677.2293.15453.3196.25919.1877-.00029.3721.04912.5345.14321s.2969.2295.39.39247l.3024.50975c.0523.0823.0903.17286.1123.26784l.3024 1.13186c.004.0546.004.1095 0 .1641l.0951.6567.4147.6393c.0764.1152.1293.2444.1555.3802l.1382.6566.553.5357c.0332.0273.0623.0594.0864.095l1.1145 1.3565.4061.1296h.5011l1.2096-.3629.2419.0173.864-.1555c.0917-.0128.1848-.0128.2765 0l1.1491.0864h.2678v-.2679c.0122-.2523.1097-.4929.2765-.6825l.0691-.0692.0691-.1987.0692-.5616c-.0082-.0746-.0082-.1499 0-.2246l.1555-.4666c.0717-.2143.2084-.4011.3911-.5342.1827-.1332.4023-.2061.6284-.2088h2.0822c.1005-.1186.2265-.2129.3687-.2757.1422-.0629.2968-.0927.4521-.0872h1.5206c.1466.0046.2909.0382.4244.099s.2536.1476.3532.2553c.0987.1081.1748.2349.2238.3729s.0698.2844.0613.4306v.1641h2.0131c.1693.0013.3358.0427.486.1208s.2797.1907.378.3285l.1728.2419c.0454.069.0859.1412.121.216l.1987.4925c.0431.1046.0693.2155.0777.3283l.1383 1.8662.1296.6394c.0038.0662.0038.1325 0 .1987v.8208l.1555.9072c.0085.0833.0085.1672 0 .2505v.3456c-.0018.0824-.0164.164-.0432.242l-.1469.5011v.4838l.0519.1987.5097.7258c.0581.0887.1045.1846.1382.2851l.3802 1.175.3802.9245c.0875.1889.1117.401.0691.6048v.1814h2.9807l.5184-.1901c.1888-.0769.3958-.0979.5962-.0604h.1814l.2333-.1469c.1757-.1118.3793-.1717.5875-.1728h.1296c.2486-.0003.4897.0851.6826.2419l.19.1469c.1812.1459.3113.3456.3716.5702l.0604.2592c.0726.2635.0417.5448-.0864.7862.0171.1117.0171.2253 0 .337v.2765c-.0066.089-.027.1764-.0604.2592l-.0692.2073-.0432.6135c.0084.0601.0084.1212 0 .1814l-.1296.5529.0692.6999c.0086.0573.0086.1155 0 .1728v.7689c-.0029.1007-.0234.2001-.0605.2938l-.1123.3369v.2765l.1814.0605c.2406.0841.4438.2506.5735.4701.1296.2195.1775.4777.1351.7291s-.1724.4796-.3669.6444c-.1945.1647-.441.2554-.6959.2559h-6.696v10.3679l.0605.0432c.1201.0955.2175.2165.2851.3542l.0864.1555.553.3283c.0871.051.1658.1151.2333.1901l.3628.3802.5616.4233.1296.121.121.1296.4061.1901c.1645.0756.305.1952.406.3456l.1124.1555.3196.1641c.1623.0864.2998.2128.3996.3671.0998.1544.1585.3317.1706.5151s-.0228.3669-.1014.533c-.0786.1662-.1983.3095-.3478.4165l-.1642.1209c-.1131.0784-.2387.1368-.3715.1728l-.6998.1728-4.8556 1.2528h-.121l-.5789.0691zm-.8639-2.4451.7516.0691c.1721.0153.338.0716.4839.1642h.0518l3.456-.864-.5012-.3802-.1296-.1123-.3196-.3456-.6912-.406c-.1749-.101-.3161-.2513-.4061-.432l-.121-.216-.2851-.2247c-.13-.1032-.2348-.2346-.3066-.3843-.0719-.1497-.1088-.3137-.1081-.4797v-11.9403c0-.2864.1138-.5611.3163-.7637.2026-.2025.4773-.3163.7637-.3163h5.6937v-.5357c.0076-.1057.0279-.2101.0605-.311l.1209-.3369v-.5357l-.0777-.7949c-.0257-.1196-.0257-.2433 0-.3629l.1555-.6393v-.6739c.0047-.0969.0221-.1928.0518-.2852-.0791-.0059-.1573-.0204-.2332-.0431l-.1556-.0432-.3715.1382c-.1188.0445-.2446.0679-.3715.0691h-2.6784l-.1728.3283c-.1081.1975-.2738.3572-.4752.4579l-.1641.0864c-.2172.1057-.4634.1361-.6998.0864l-.4061-.0777c-.2368-.0492-.45-.1771-.6048-.3629l-.1037-.121c-.1675-.0467-.3215-.1326-.4493-.2505l-.0345-.0691c-.0944-.0869-.1732-.1891-.2333-.3024l-.0864-.1815c-.0716-.131-.1147-.2757-.1266-.4246-.012-.1489.0076-.2986.0575-.4394l.0432-.1296c.0513-.1618.1435-.3076.2678-.4233l.6739-.6826-.2592-.6134c.0035-.0287.0035-.0577 0-.0864l-.3369-1.0713-.5962-.7085c-.0752-.1043-.1308-.2214-.1641-.3456l-.1037-.5184c-.0127-.0975-.0127-.1962 0-.2938v-.7775c-.0125-.0947-.0125-.1905 0-.2852l.1641-.6048-.1468-.8639c-.0085-.0602-.0085-.1213 0-.1815v-.8035l-.1124-.5961c-.0041-.0403-.0041-.0808 0-.121l-.1296-1.6675h-2.4796c-.1463-.0014-.2908-.0329-.4246-.0923-.1337-.0594-.2539-.1456-.353-.2533-.1821-.198-.2838-.4568-.2851-.7258-.1452.0717-.3046.1101-.4666.1124h-1.9007v.2073c-.0081.0824-.0255.1635-.0519.2419l-.1814.5098c-.0403.1124-.0987.2174-.1728.311v.0519c.0041.0748.0041.1498 0 .2246l-.216.864c-.0578.2338-.1921.4415-.3815.5903-.1894.1487-.4231.2298-.6639.2305h-1.2096l-1.0887-.0864-.648.1209-1.2959.3888c-.1033.0126-.2078.0126-.3111 0h-.864c-.1115.0004-.2223-.0171-.3283-.0518l-.864-.2851c-.1949-.0635-.3664-.1839-.4924-.3456l-1.2787-1.5465-.7517-.7258c-.1546-.1528-.2599-.3484-.3024-.5616l-.1642-.7862-.3542-.5443c-.0321-.05-.0609-.1019-.0864-.1556l-.1382-.311c-.0419-.1026-.0709-.21-.0864-.3197l-.0692-.6652-.19-.7085c-.1458-.0169-.2864-.0641-.4128-.1385-.1265-.0744-.236-.17436-.3216-.29351l-.0778-.10368-.5702-.0432-2.0045.14688c-.0373.00429-.075.00429-.1123 0h-.8208l-.7257.10368h-.1642-1.2614c-.0946.0125-.1905.0125-.2851 0l-.2592-.07776-1.23554.0864h-1.52062l-.41472-.10368h-.57023l-.71711.23327-.78623.3283-.13824.0519-.43199.1209.26783.4234.81215.9936c.06769.0806.12301.1709.16416.2678l.19008.4493c.02403.0591.04424.1197.06048.1814l.13824.6566.65663 2.0391.31967.4147c.07947.1029.13816.2203.1728.3456l.25056.864c.02704.1015.04155.2059.0432.311v.9158c.00014.1542-.03298.3065-.0971.4467-.06411.1401-.15772.2648-.27442.3655l-.38879.3456.38879 1.5206.26784.6998.24192.2938c.05988.0782.11196.1622.15552.2505l.19007.4493.59616.4579c.19426.1482.33157.3587.38879.5962l.28512 1.1318c.0337.1476.03648.3005.00826.4492-.02825.1487-.08695.2899-.17242.4148l-.0864.1123v.5098c.01704.1232.01704.2482 0 .3715l-.11232.3715v.864c.00856.0775.00856.1557 0 .2333l-.20736.9417c-.0152.0715-.03839.1411-.06912.2074l-.27647.6393c-.01963.045-.04274.0883-.06912.1296l-.3024.4925c-.04409.067-.09319.1305-.14688.1901l-.86398.864c-.10227.1056-.22601.1881-.36288.2419l-.71711.2937v.1815c-.03206.2231-.13154.4311-.28512.5961l-.38015.3975-.16416.1382-.3456.2419-.22463.4493v.216c-.02124.2044-.09903.3989-.22464.5616v.0777c.00051.1558-.03497.3096-.10368.4493l-.44064.9504-.09503.5011c-.01499.0677-.03521.1342-.06048.1987l-.11232.2765-.0864.6048-.05184.1987-.14688.4147-.07776.6826c-.01724.1225-.05217.2418-.10368.3542l-.24191.4925-.432 1.3737c-.05185.1672-.14041.3207-.2592.4493l-.25055.2419v.2852 1.7279c.0085.066.0085.1328 0 .1988.27771-.0722.57269-.0319.82079.1123l.07776.0432.38879-.3283c.09477-.0814.20293-.1457.31968-.1901l.58751-.2074c.11287-.0445.23293-.0679.35424-.0691h1.48606.18144l.62207.0864c.1533.0233.29978.0794.42949.1643.1297.085.23959.1969.32218.3282l.12096.1814.49247.1728c.1241.0439.23852.1114.33696.1987l.46655.3975h.216 15.1544c.2187.0018.432.0679.6134.19l.9763.674c.0925.0609.1743.1369.2419.2246l.2247.2851.6825.216h.2506l1.2009-.1728h.1901l1.728.0605h.1555l2.0995.3974.959.0864h.121z"/><path d="m2.93176 6.78378c-.24184.00021-.47652-.08208-.66527-.23327l-.53568-.41472c-.18238-.1411-.313-.33854-.37151-.56159l-.09504-.40608c-.02133-.12001-.02133-.24285 0-.36287v-.42336l-.06912-.30239-.07776-.06912c-.119122-.1094-.213216-.24323-.275845-.39235-.062629-.14911-.092315-.30999-.087029-.47164.005324-.17036.050258-.33713.131241-.4871s.195793-.27901.335313-.37689l.86399-.61343.13824-.0864.37151-.15552.2592-.527035c.10907-.214266.28499-.387152.50112-.492474l.67391-.3196766c.13664-.0579827.28356-.0878644.43199-.0878644.14844 0 .29535.0298817.432.0878644l.57887.2159976c.25657.098977.46431.294309.57887.544313l.31968.630715c.06414.14262.0973.29722.0973.45359 0 .15638-.03316.31098-.0973.4536-.06123.14548-.15435.27535-.27249.38003-.11813.10468-.25827.18149-.41006.22476h-.06048l-.37152.2592-.31103.28511-.15552.53568-.14688.81215v.64799c-.01142.20133-.07898.39543-.19503.56035-.11605.16491-.27595.29403-.4616.37276l-.6048.25055c-.14272.05628-.29623.07989-.44927.06912z"/></g></svg>

<svg width="47" height="50" viewBox="0 0 47 50" fill="none" xmlns="http://www.w3.org/2000/svg">
<path d="M35.9792 50.0004C35.7271 49.9975 35.4835 49.9091 35.2881 49.7499L34.8215 49.7066H34.7005L33.9748 49.5511L33.0244 49.4647H32.9294L30.8644 49.0846L29.2747 49.0241L28.0651 49.1969C28.0021 49.2058 27.9381 49.2058 27.875 49.1969H27.3825C27.2879 49.1972 27.1941 49.1796 27.1061 49.1451L25.9224 48.7476C25.7135 48.6794 25.5299 48.5499 25.3954 48.3761L25.0671 47.9614L24.5055 47.5726H9.78308L9.35972 47.659C9.19874 47.6916 9.03242 47.6867 8.87362 47.6448C8.71482 47.6028 8.56779 47.5249 8.4439 47.4171L7.77862 46.8123L7.13063 46.579C6.90176 46.4989 6.70682 46.3436 6.57768 46.1384L6.474 46.052L5.18666 46.0779L4.95338 46.1643L4.43498 46.6395C4.36024 46.7043 4.27566 46.7568 4.18443 46.795L3.79563 46.9764C3.6388 47.0453 3.46804 47.0764 3.29701 47.0674C3.12597 47.0584 2.95942 47.0095 2.81068 46.9246L2.68109 47.0196C2.62279 47.0651 2.55891 47.1028 2.49101 47.132L1.7307 47.5035C1.56521 47.5813 1.38288 47.6166 1.2003 47.606C1.01772 47.5954 0.840681 47.5394 0.68527 47.443C0.529539 47.3462 0.401027 47.2113 0.311844 47.0511C0.22266 46.8908 0.175744 46.7105 0.175516 46.5272V46.2507L0.00271777 45.0584C-0.000905924 45.0095 -0.000905924 44.9604 0.00271777 44.9115L0.00271777 44.2203C0.0030499 43.9402 0.111358 43.671 0.305114 43.4687V42.5442C0.305114 42.5442 0.305114 42.4578 0.305114 42.4059L0.400153 41.6975C0.429449 41.4667 0.532479 41.2515 0.693909 41.084L1.00495 40.7644L1.35054 39.5634C1.36984 39.5044 1.39293 39.4467 1.41966 39.3906L1.61838 38.9845L1.7307 38.3625C1.7226 38.2791 1.7226 38.1952 1.7307 38.1119L1.88622 37.6799L1.98125 37.0578C1.99509 36.9749 2.01828 36.8937 2.05037 36.8159L2.17133 36.5222L2.27501 35.9865C2.29177 35.9004 2.31784 35.8164 2.35277 35.7359L2.7502 34.872V34.6387C2.74785 34.3789 2.83996 34.1271 3.0094 33.9302V33.8524C3.02085 33.7392 3.05001 33.6284 3.0958 33.5241L3.49324 32.6601C3.57136 32.4827 3.69693 32.3302 3.85611 32.2195L4.4177 31.8048L4.47818 31.3555C4.50079 31.1661 4.57358 30.9861 4.68901 30.8342C4.80445 30.6823 4.95835 30.564 5.13482 30.4915L6.22344 30.0422L6.91463 29.4288L7.12199 29.1005L7.32935 28.6339L7.47623 27.9082V27.0442C7.47028 26.9517 7.47609 26.8588 7.49351 26.7677L7.58855 26.4308L7.53671 25.7309C7.52222 25.4859 7.58904 25.2429 7.72678 25.0397L7.65766 24.7546L7.13927 24.3572C6.99251 24.2458 6.87898 24.0964 6.81096 23.9252L6.57768 23.3118L6.32712 23.0094C6.25368 22.9232 6.1979 22.8233 6.16296 22.7156L5.80009 21.7998C5.80009 21.7998 5.80009 21.7134 5.80009 21.6702L5.29897 19.8558C5.28585 19.767 5.28585 19.6768 5.29897 19.588V19.2165C5.3002 18.983 5.37586 18.756 5.51497 18.5685L5.81737 18.1624C5.85982 18.097 5.9123 18.0387 5.97289 17.9896L6.05064 17.9032V17.5403L5.90377 17.0651L5.60137 16.6677C5.52985 16.5706 5.47442 16.4627 5.43721 16.348L4.70282 14.1535V14.0498L4.46954 13.1858L3.70923 12.2613L3.62283 12.1317L3.32044 11.6479L2.95756 11.2159L2.88844 11.1122L2.68109 10.758C2.56018 10.549 2.50876 10.3069 2.53421 10.0668V9.89401C2.55077 9.76092 2.59177 9.63204 2.65517 9.51386L2.7502 9.3497C2.86346 9.13972 3.04256 8.97277 3.25996 8.8745L3.62283 8.71898L3.76107 8.66715L4.87562 8.35611L5.65321 8.01051H5.75689L6.68136 7.70812C6.79044 7.67405 6.90403 7.65658 7.01831 7.65628H7.50215L7.8823 7.60444H8.03782H9.5498L10.8976 7.5094C11.0209 7.49247 11.1459 7.49247 11.2691 7.5094L11.5802 7.60444H12.6083L13.3427 7.50076C13.4029 7.49213 13.464 7.49213 13.5242 7.50076H14.3881L16.4185 7.43164H16.574L17.6281 7.51804C17.7729 7.52478 17.9144 7.56312 18.0428 7.63036L18.1811 7.69948C18.3021 7.76625 18.4104 7.85401 18.5007 7.95867C18.6884 7.95838 18.8728 8.00779 19.0352 8.10188C19.1976 8.19597 19.3321 8.33138 19.4252 8.49435L19.7276 9.0041C19.7799 9.0864 19.8179 9.17696 19.8399 9.27194L20.1423 10.4038C20.1463 10.4584 20.1463 10.5133 20.1423 10.5679L20.2374 11.2246L20.6521 11.8639C20.7285 11.9791 20.7814 12.1083 20.8076 12.2441L20.9458 12.9007L21.4988 13.4364C21.532 13.4637 21.5611 13.4958 21.5852 13.5314L22.6997 14.8879L23.1058 15.0175H23.6069L24.8165 14.6546L25.0584 14.6719L25.9224 14.5164C26.0141 14.5036 26.1072 14.5036 26.1989 14.5164L27.348 14.6028H27.6158V14.3349C27.628 14.0826 27.7255 13.842 27.8923 13.6524L27.9614 13.5832L28.0305 13.3845L28.0997 12.8229C28.0915 12.7483 28.0915 12.673 28.0997 12.5983L28.2552 12.1317C28.3269 11.9174 28.4636 11.7306 28.6463 11.5975C28.829 11.4643 29.0486 11.3914 29.2747 11.3887H31.3569C31.4574 11.2701 31.5834 11.1758 31.7256 11.113C31.8678 11.0501 32.0224 11.0203 32.1777 11.0258H33.6983C33.8449 11.0304 33.9892 11.064 34.1227 11.1248C34.2562 11.1856 34.3763 11.2724 34.4759 11.3801C34.5746 11.4882 34.6507 11.615 34.6997 11.753C34.7487 11.891 34.7695 12.0374 34.761 12.1836V12.3477H36.7741C36.9434 12.349 37.1099 12.3904 37.2601 12.4685C37.4103 12.5466 37.5398 12.6592 37.6381 12.797L37.8109 13.0389C37.8563 13.1079 37.8968 13.1801 37.9319 13.2549L38.1306 13.7474C38.1737 13.852 38.1999 13.9629 38.2083 14.0757L38.3466 15.9419L38.4762 16.5813C38.48 16.6475 38.48 16.7138 38.4762 16.78V17.6008L38.6317 18.508C38.6402 18.5913 38.6402 18.6752 38.6317 18.7585V19.1041C38.6299 19.1865 38.6153 19.2681 38.5885 19.3461L38.4416 19.8472V20.331L38.4935 20.5297L39.0032 21.2555C39.0613 21.3442 39.1077 21.4401 39.1414 21.5406L39.5216 22.7156L39.9018 23.6401C39.9893 23.829 40.0135 24.0411 39.9709 24.2449V24.4263H42.9516L43.47 24.2362C43.6588 24.1593 43.8658 24.1383 44.0662 24.1758H44.2476L44.4809 24.0289C44.6566 23.9171 44.8602 23.8572 45.0684 23.8561H45.198C45.4466 23.8558 45.6877 23.9412 45.8806 24.098L46.0706 24.2449C46.2518 24.3908 46.3819 24.5905 46.4422 24.8151L46.5026 25.0743C46.5752 25.3378 46.5443 25.6191 46.4162 25.8605C46.4333 25.9722 46.4333 26.0858 46.4162 26.1975V26.474C46.4096 26.563 46.3892 26.6504 46.3558 26.7332L46.2866 26.9405L46.2434 27.554C46.2518 27.6141 46.2518 27.6752 46.2434 27.7354L46.1138 28.2883L46.183 28.9882C46.1916 29.0455 46.1916 29.1037 46.183 29.161V29.9299C46.1801 30.0306 46.1596 30.13 46.1225 30.2237L46.0102 30.5606V30.8371L46.1916 30.8976C46.4322 30.9817 46.6354 31.1482 46.7651 31.3677C46.8947 31.5872 46.9426 31.8454 46.9002 32.0968C46.8578 32.3482 46.7278 32.5764 46.5333 32.7412C46.3388 32.9059 46.0923 32.9966 45.8374 32.9971H39.1414V43.365L39.2019 43.4082C39.322 43.5037 39.4194 43.6247 39.487 43.7624L39.5734 43.9179L40.1264 44.2462C40.2135 44.2972 40.2922 44.3613 40.3597 44.4363L40.7225 44.8165L41.2841 45.2398L41.4137 45.3608L41.5347 45.4904L41.9408 45.6805C42.1053 45.7561 42.2458 45.8757 42.3468 46.0261L42.4592 46.1816L42.7788 46.3457C42.9411 46.4321 43.0786 46.5585 43.1784 46.7128C43.2782 46.8672 43.3369 47.0445 43.349 47.2279C43.3611 47.4113 43.3262 47.5948 43.2476 47.7609C43.169 47.9271 43.0493 48.0704 42.8998 48.1774L42.7356 48.2983C42.6225 48.3767 42.4969 48.4351 42.3641 48.4711L41.6643 48.6439L36.8087 49.8967H36.6877L36.1088 49.9658L35.9792 50.0004ZM35.1153 47.5553L35.8669 47.6244C36.039 47.6397 36.2049 47.696 36.3508 47.7886H36.4026L39.8586 46.9246L39.3574 46.5444L39.2278 46.4321L38.9082 46.0865L38.217 45.6805C38.0421 45.5795 37.9009 45.4292 37.8109 45.2485L37.6899 45.0325L37.4048 44.8078C37.2748 44.7046 37.17 44.5732 37.0982 44.4235C37.0263 44.2738 36.9894 44.1098 36.9901 43.9438V32.0035C36.9901 31.7171 37.1039 31.4424 37.3064 31.2398C37.509 31.0373 37.7837 30.9235 38.0701 30.9235H43.7638V30.3878C43.7714 30.2821 43.7917 30.1777 43.8243 30.0768L43.9452 29.7399V29.2042L43.8675 28.4093C43.8418 28.2897 43.8418 28.166 43.8675 28.0464L44.023 27.4071V26.7332C44.0277 26.6363 44.0451 26.5404 44.0748 26.448C43.9957 26.4421 43.9175 26.4276 43.8416 26.4049L43.686 26.3617L43.3145 26.4999C43.1957 26.5444 43.0699 26.5678 42.943 26.569H40.2646L40.0918 26.8973C39.9837 27.0948 39.818 27.2545 39.6166 27.3552L39.4525 27.4416C39.2353 27.5473 38.9891 27.5777 38.7527 27.528L38.3466 27.4503C38.1098 27.4011 37.8966 27.2732 37.7418 27.0874L37.6381 26.9664C37.4706 26.9197 37.3166 26.8338 37.1888 26.7159L37.1543 26.6468C37.0599 26.5599 36.9811 26.4577 36.921 26.3444L36.8346 26.1629C36.763 26.0319 36.7199 25.8872 36.708 25.7383C36.696 25.5894 36.7156 25.4397 36.7655 25.2989L36.8087 25.1693C36.86 25.0075 36.9522 24.8617 37.0765 24.746L37.7504 24.0634L37.4912 23.45C37.4947 23.4213 37.4947 23.3923 37.4912 23.3636L37.1543 22.2923L36.5581 21.5838C36.4829 21.4795 36.4273 21.3624 36.394 21.2382L36.2903 20.7198C36.2776 20.6223 36.2776 20.5236 36.2903 20.426V19.6485C36.2778 19.5538 36.2778 19.458 36.2903 19.3633L36.4544 18.7585L36.3076 17.8946C36.2991 17.8344 36.2991 17.7733 36.3076 17.7131V16.9096L36.1952 16.3135C36.1911 16.2732 36.1911 16.2327 36.1952 16.1925L36.0656 14.525H33.586C33.4397 14.5236 33.2952 14.4921 33.1614 14.4327C33.0277 14.3733 32.9075 14.2871 32.8084 14.1794C32.6263 13.9814 32.5246 13.7226 32.5233 13.4536C32.3781 13.5253 32.2187 13.5637 32.0567 13.566H30.156V13.7733C30.1479 13.8557 30.1305 13.9368 30.1041 14.0152L29.9227 14.525C29.8824 14.6374 29.824 14.7424 29.7499 14.836V14.8879C29.754 14.9627 29.754 15.0377 29.7499 15.1125L29.5339 15.9765C29.4761 16.2103 29.3418 16.418 29.1524 16.5668C28.963 16.7155 28.7293 16.7966 28.4885 16.7973H27.2789L26.1902 16.7109L25.5422 16.8318L24.2463 17.2206C24.143 17.2332 24.0385 17.2332 23.9352 17.2206H23.0712C22.9597 17.221 22.8489 17.2035 22.7429 17.1688L21.8789 16.8837C21.684 16.8202 21.5125 16.6998 21.3865 16.5381L20.1078 14.9916L19.3561 14.2658C19.2015 14.113 19.0962 13.9174 19.0537 13.7042L18.8895 12.918L18.5353 12.3737C18.5032 12.3237 18.4744 12.2718 18.4489 12.2181L18.3107 11.9071C18.2688 11.8045 18.2398 11.6971 18.2243 11.5874L18.1551 10.9222L17.9651 10.2137C17.8193 10.1968 17.6787 10.1496 17.5523 10.0752C17.4258 10.0008 17.3163 9.90084 17.2307 9.78169L17.1529 9.67801L16.5827 9.63481L14.5782 9.78169C14.5409 9.78598 14.5032 9.78598 14.4659 9.78169H13.6451L12.9194 9.88537H12.7552H11.4938C11.3992 9.89787 11.3033 9.89787 11.2087 9.88537L10.9495 9.80761L9.71396 9.89401H8.19334L7.77862 9.79033H7.20839L6.49128 10.0236L5.70505 10.3519L5.56681 10.4038L5.13482 10.5247L5.40265 10.9481L6.2148 11.9417C6.28249 12.0223 6.33781 12.1126 6.37896 12.2095L6.56904 12.6588C6.59307 12.7179 6.61328 12.7785 6.62952 12.8402L6.76776 13.4968L7.42439 15.5359L7.74406 15.9506C7.82353 16.0535 7.88222 16.1709 7.91686 16.2962L8.16742 17.1602C8.19446 17.2617 8.20897 17.3661 8.21062 17.4712V18.387C8.21076 18.5412 8.17764 18.6935 8.11352 18.8337C8.04941 18.9738 7.9558 19.0985 7.8391 19.1992L7.45031 19.5448L7.8391 21.0654L8.10694 21.7652L8.34886 22.059C8.40874 22.1372 8.46082 22.2212 8.50438 22.3095L8.69445 22.7588L9.29061 23.2167C9.48487 23.3649 9.62218 23.5754 9.6794 23.8129L9.96452 24.9447C9.99822 25.0923 10.001 25.2452 9.97278 25.3939C9.94453 25.5426 9.88583 25.6838 9.80036 25.8087L9.71396 25.921V26.4308C9.731 26.554 9.731 26.679 9.71396 26.8023L9.60164 27.1738V28.0378C9.6102 28.1153 9.6102 28.1935 9.60164 28.2711L9.39428 29.2128C9.37908 29.2843 9.35589 29.3539 9.32516 29.4202L9.04869 30.0595C9.02906 30.1045 9.00595 30.1478 8.97957 30.1891L8.67717 30.6816C8.63308 30.7486 8.58398 30.8121 8.53029 30.8717L7.66631 31.7357C7.56404 31.8413 7.4403 31.9238 7.30343 31.9776L6.58632 32.2713V32.4528C6.55426 32.6759 6.45478 32.8839 6.3012 33.0489L5.92105 33.4464L5.75689 33.5846L5.41129 33.8265L5.18666 34.2758V34.4918C5.16542 34.6962 5.08763 34.8907 4.96202 35.0534V35.1311C4.96253 35.2869 4.92705 35.4407 4.85834 35.5804L4.4177 36.5308L4.32267 37.0319C4.30768 37.0996 4.28746 37.1661 4.26219 37.2306L4.14987 37.5071L4.06347 38.1119L4.01163 38.3106L3.86475 38.7253L3.78699 39.4079C3.76975 39.5304 3.73482 39.6497 3.68331 39.7621L3.4414 40.2546L3.0094 41.6283C2.95755 41.7955 2.86899 41.949 2.7502 42.0776L2.49965 42.3195V42.6047V44.3326C2.50815 44.3986 2.50815 44.4654 2.49965 44.5314C2.77736 44.4592 3.07234 44.4995 3.32044 44.6437L3.3982 44.6869L3.78699 44.3586C3.88176 44.2772 3.98992 44.2129 4.10667 44.1685L4.69418 43.9611C4.80705 43.9166 4.92711 43.8932 5.04842 43.892H6.53448H6.71592L7.33799 43.9784C7.49129 44.0017 7.63777 44.0578 7.76748 44.1427C7.89718 44.2277 8.00707 44.3396 8.08966 44.4709L8.21062 44.6523L8.70309 44.8251C8.82719 44.869 8.94161 44.9365 9.04005 45.0238L9.5066 45.4213H9.7226H24.877C25.0957 45.4231 25.309 45.4892 25.4904 45.6113L26.4667 46.2853C26.5592 46.3462 26.641 46.4222 26.7086 46.5099L26.9333 46.795L27.6158 47.011H27.8664L29.0673 46.8382H29.2574L30.9854 46.8987H31.1409L33.2404 47.2961L34.1994 47.3825H34.3204L35.1153 47.5553Z" fill="#B5BD00"/>
<path d="M2.93176 6.78378C2.68992 6.78399 2.45524 6.7017 2.26649 6.55051L1.73081 6.13579C1.54843 5.99469 1.41781 5.79725 1.3593 5.5742L1.26426 5.16812C1.24293 5.04811 1.24293 4.92527 1.26426 4.80525V4.38189L1.19514 4.0795L1.11738 4.01038C0.998258 3.90098 0.904164 3.76715 0.841535 3.61803C0.778906 3.46892 0.74922 3.30804 0.754506 3.14639C0.75983 2.97603 0.804764 2.80926 0.885747 2.65929C0.96673 2.50932 1.08154 2.38028 1.22106 2.2824L2.08505 1.66897L2.22329 1.58257L2.5948 1.42705L2.854 0.900015C2.96307 0.685749 3.13899 0.512863 3.35512 0.407541L4.02903 0.0878644C4.16567 0.0298817 4.31259 0 4.46102 0C4.60946 0 4.75637 0.0298817 4.89302 0.0878644L5.47189 0.303862C5.72846 0.402839 5.9362 0.598171 6.05076 0.848175L6.37044 1.47889C6.43458 1.62151 6.46774 1.77611 6.46774 1.93248C6.46774 2.08886 6.43458 2.24346 6.37044 2.38608C6.30921 2.53156 6.21609 2.66143 6.09795 2.76611C5.97982 2.87079 5.83968 2.9476 5.68789 2.99087H5.62741L5.25589 3.25007L4.94486 3.53518L4.78934 4.07086L4.64246 4.88301V5.531C4.63104 5.73233 4.56348 5.92643 4.44743 6.09135C4.33138 6.25626 4.17148 6.38538 3.98583 6.46411L3.38103 6.71466C3.23831 6.77094 3.0848 6.79455 2.93176 6.78378Z" fill="#B5BD00"/>
</svg>
